bundles/org.openhab.ui.habot/web/src/assets/sad.svg

<svg xmlns="http://www.w3.org/2000/svg" width="166.7" height="168.9"><g clip-path="url(#_clipPath_PPPiEcORhRSYwopEENnaRFzzeYSXmwtt)"><path d="M65.6 135.2c0 1.9-1.5 3.4-3.4 3.4-1.8 0-3.3-1.5-3.3-3.4 0-4.5 3-8.5 7.9-11.2 4.3-2.4 10.2-3.9 16.5-3.9 6.4 0 12.3 1.5 16.6 3.9 4.8 2.7 7.9 6.7 7.9 11.2 0 1.9-1.5 3.4-3.4 3.4-1.8 0-3.3-1.5-3.3-3.4s-1.7-3.9-4.5-5.4c-3.3-1.9-8-3-13.3-3-5.2 0-9.9 1.1-13.3 3-2.7 1.5-4.4 3.5-4.4 5.4Zm83.6 18.1c0 4.3-1.7 8.2-4.6 11.1-2.8 2.8-6.7 4.5-11 4.5s-8.2-1.7-11-4.5c-1.7-1.6-2.9-3.5-3.7-5.7-4.8 2.3-9.9 4.1-15.2 5.4-6.5 1.7-13.3 2.5-20.4 2.5-23 0-43.8-9.3-58.9-24.4C9.3 127.1 0 106.3 0 83.3s9.3-43.8 24.4-58.9C39.5 9.3 60.3 0 83.3 0c23.1 0 43.9 9.3 59 24.4 15 15.1 24.4 35.9 24.4 58.9 0 11.2-2.2 21.8-6.2 31.6-3.9 9.3-9.4 17.8-16.1 25.1 2.6 5.1 4.8 10.2 4.8 13.3Zm-18.5-27c.4-.8 1.1-1.3 1.8-1.5l.1-.1h.2l.1-.1H133.2c.7-.1 1.4 0 2 .4.6.3 1.1.8 1.4 1.4v.1h.1c.3.7 1 1.8 1.7 3.1l.1.1.1.1v.1l.1.1v.1l.1.1v.1h.1v.1l.1.1v.1l.1.1.1.1v.1c.6.9 1.2 2 1.8 3 5.5-6.3 10.1-13.6 13.3-21.5 3.7-9 5.7-18.8 5.7-29.1 0-21.2-8.6-40.3-22.4-54.2-13.9-13.9-33.1-22.4-54.3-22.4-21.1 0-40.3 8.5-54.2 22.4C15.2 43 6.7 62.1 6.7 83.3c0 21.2 8.5 40.3 22.4 54.2C43 151.4 62.2 160 83.3 160c6.5 0 12.8-.8 18.8-2.3 5.7-1.5 11-3.5 16-6v-.1h.1v-.3l.1-.3.1-.3v-.1l.1-.2v-.4l.1-.1v-.2l.1-.1.1-.3c.1-.4.2-.8.3-1.1l.1-.1.1-.3v-.1l.1-.3c.1-.3.2-.5.3-.7v-.1l.1-.3.1-.1.1-.3h.1c.1-.3.2-.6.3-.8l.2-.4v-.1l.1-.3.1-.1.1-.3v-.1h.1l.1-.3v-.1l.1-.2.1-.2h.1c.2-.4.3-.8.6-1.2v-.1l.2-.3v-.1l.2-.4.2-.4.2-.4.2-.3v-.1l.4-.8h.1l.1-.3.1-.2.1-.1.1-.3.1-.1.2-.3v-.1l.2-.3.2-.4.2-.4.2-.3.1-.1.1-.3.1-.1.1-.3.1-.1.1-.2.1-.2.1-.2.1-.2.3-.4v-.1l.2-.3.2-.3v-.1l.2-.3.2-.4.3-.3.1-.3v-.1l.2-.2.1-.1.1-.2.1-.2.1-.1.1-.2v-.2l.2-.2.2-.3.2-.3.1-.3.1-.1v-.1h.1v-.2l.1-.1.1-.1v-.1h.1v-.1l.1-.1v-.2h.1v-.1l.1-.1v-.1h.1v-.1l.1-.1v-.1l.1-.1v-.1h.1v-.2h.1v-.1l.1-.1v-.1l.1-.1.1-.1v-.1l.1-.1v-.1l.1-.1v-.1h.1v-.1Zm9.3 33.3c1.5-1.5 2.6-3.8 2.6-6.3 0-2.3-2.5-7.3-5.2-12.2-.4-.7-.7-1.3-1.1-2l-.1-.1v-.1h-.1v-.1l-.1-.3h-.1c-.7-1.3-1.4-2.4-2-3.5l-.1-.1v-.1l-.1-.1-.1-.1v-.1l-.2.3-.1.3-.2.3-.2.3-.2.3-.2.3-.1.3-.2.3-.2.3-.2.3-.2.4-.2.3-.2.3-.2.4-.2.3-.1.3-.2.4-.2.3-.2.3-.2.4-.2.3-.1.3-.2.4-.2.3-.2.4-.2.3-.2.3-.1.4-.2.3-.2.4-.2.3-.1.3-.2.3-.2.4-.1.3-.2.3-.1.3-.2.3-.1.4-.2.3-.1.3-.1.3-.2.3-.1.2-.1.4-.2.3v.2l-.1.3-.2.2-.1.3v.3l-.1.2-.1.3-.1.2v.3l-.1.2-.1.2v.4c-.1.1-.1.1-.1.2v.4l-.1.2v.2c.1 2.5 1.1 4.7 2.7 6.3 1.6 1.6 3.8 2.6 6.3 2.6s4.7-1 6.4-2.7Zm-4.7-86.9c.9 1.6.3 3.6-1.4 4.5-1.6.8-3.6.2-4.5-1.4-.7-1.5-1.8-2.9-3.1-3.9-1.3-1.1-2.9-1.8-4.5-2.3-1-.2-2-.4-2.9-.4-1.1 0-2.1.1-3.1.3-1.8.4-3.5-.7-4-2.5-.3-1.8.8-3.5 2.6-4 1.4-.3 3-.4 4.5-.4 1.6 0 3.1.2 4.5.6h.2c2.5.7 4.8 1.9 6.8 3.5 2.1 1.6 3.7 3.7 4.9 6Zm-98.1 3.1c-.8 1.6-2.8 2.2-4.5 1.4-1.6-.9-2.2-2.9-1.4-4.5 1.2-2.3 2.9-4.4 4.9-6 2-1.6 4.4-2.8 6.9-3.5h.1c1.5-.4 3-.6 4.5-.6 1.6 0 3.1.1 4.6.4 1.8.5 2.9 2.2 2.5 4-.4 1.8-2.2 2.9-3.9 2.5-1-.2-2.1-.3-3.1-.3s-2 .2-2.9.4c-1.7.5-3.2 1.2-4.5 2.3-1.3 1-2.4 2.4-3.2 3.9Zm88 16.9c0-2-.7-3.8-1.9-5.1-1.1-1.1-2.7-1.9-4.3-1.9-1.7 0-3.2.8-4.3 1.9-1.2 1.3-1.9 3.1-1.9 5.1 0 1.9.7 3.7 1.9 5 1.1 1.2 2.6 1.9 4.3 1.9 1.6 0 3.2-.7 4.3-1.9 1.2-1.3 1.9-3.1 1.9-5Zm3-9.5c2.2 2.4 3.6 5.8 3.6 9.5s-1.4 7-3.6 9.5c-2.4 2.5-5.6 4.1-9.2 4.1-3.6 0-6.9-1.6-9.2-4.1-2.3-2.5-3.7-5.8-3.7-9.5s1.4-7.1 3.7-9.5c2.3-2.6 5.6-4.1 9.2-4.1 3.6 0 6.8 1.5 9.2 4.1Zm-74.3 9.5c0-2-.7-3.8-1.9-5.1-1.1-1.1-2.6-1.9-4.3-1.9-1.7 0-3.2.8-4.3 1.9-1.2 1.3-1.9 3.1-1.9 5.1 0 1.9.7 3.7 1.9 5 1.1 1.2 2.6 1.9 4.3 1.9 1.7 0 3.2-.7 4.3-1.9 1.2-1.3 1.9-3.1 1.9-5Zm3-9.5c2.3 2.4 3.6 5.8 3.6 9.5s-1.3 7-3.6 9.5c-2.4 2.5-5.6 4.1-9.2 4.1-3.6 0-6.8-1.6-9.2-4.1-2.3-2.5-3.7-5.8-3.7-9.5s1.4-7.1 3.7-9.5c2.4-2.6 5.6-4.1 9.2-4.1 3.6 0 6.8 1.5 9.2 4.1Z" fill="#011627" fill-opacity=".2"/></g></svg>

<svg xmlns="http://www.w3.org/2000/svg" viewBox="0 0 166.7 168.9" width="166.7" height="168.9" isolation="isolate"><defs><clipPath><rect width="166.7" height="168.9"/></clipPath></defs><g clip-path="url(#_clipPath_PPPiEcORhRSYwopEENnaRFzzeYSXmwtt)"><path d="M65.6 135.2C65.6 137.1 64.1 138.6 62.2 138.6 60.4 138.6 58.9 137.1 58.9 135.2 58.9 130.7 61.9 126.7 66.8 124 71.1 121.6 77 120.1 83.3 120.1 89.7 120.1 95.6 121.6 99.9 124 104.7 126.7 107.8 130.7 107.8 135.2 107.8 137.1 106.3 138.6 104.4 138.6 102.6 138.6 101.1 137.1 101.1 135.2 101.1 133.3 99.4 131.3 96.6 129.8 93.3 127.9 88.6 126.8 83.3 126.8 78.1 126.8 73.4 127.9 70 129.8 67.3 131.3 65.6 133.3 65.6 135.2ZM149.2 153.3C149.2 157.6 147.5 161.5 144.6 164.4 141.8 167.2 137.9 168.9 133.6 168.9 129.3 168.9 125.4 167.2 122.6 164.4 120.9 162.8 119.7 160.9 118.9 158.7 114.1 161 109 162.8 103.7 164.1 97.2 165.8 90.4 166.6 83.3 166.6 60.3 166.6 39.5 157.3 24.4 142.2 9.3 127.1 0 106.3 0 83.3 0 60.3 9.3 39.5 24.4 24.4 39.5 9.3 60.3 0 83.3 0 106.4 0 127.2 9.3 142.3 24.4 157.3 39.5 166.7 60.3 166.7 83.3 166.7 94.5 164.5 105.1 160.5 114.9 156.6 124.2 151.1 132.7 144.4 140 147 145.1 149.2 150.2 149.2 153.3ZM130.7 126.3C131.1 125.5 131.8 125 132.5 124.8L132.6 124.7 132.6 124.7 132.7 124.7 132.7 124.7 132.8 124.7 132.9 124.6 132.9 124.6 132.9 124.6 133 124.6 133 124.6C133 124.6 133.1 124.6 133.1 124.6L133.1 124.6 133.2 124.6 133.2 124.6C133.9 124.5 134.6 124.6 135.2 125 135.8 125.3 136.3 125.8 136.6 126.4L136.6 126.4 136.6 126.4 136.6 126.4 136.6 126.4 136.6 126.4 136.6 126.5 136.6 126.5 136.6 126.5 136.6 126.5 136.6 126.5 136.7 126.5C137 127.2 137.7 128.3 138.4 129.6L138.4 129.6 138.5 129.7 138.5 129.7 138.6 129.8 138.6 129.9 138.6 129.9 138.7 130 138.7 130.1 138.7 130.1 138.7 130.1 138.8 130.2 138.8 130.2 138.8 130.3 138.9 130.3 138.9 130.4 138.9 130.4 138.9 130.4 139 130.5 139 130.5 139 130.6 139.1 130.7 139.1 130.7 139.1 130.7 139.2 130.8 139.2 130.8 139.2 130.9C139.8 131.8 140.4 132.9 141 133.9 146.5 127.6 151.1 120.3 154.3 112.4 158 103.4 160 93.6 160 83.3 160 62.1 151.4 43 137.6 29.1 123.7 15.2 104.5 6.7 83.3 6.7 62.2 6.7 43 15.2 29.1 29.1 15.2 43 6.7 62.1 6.7 83.3 6.7 104.5 15.2 123.6 29.1 137.5 43 151.4 62.2 160 83.3 160 89.8 160 96.1 159.2 102.1 157.7 107.8 156.2 113.1 154.2 118.1 151.7L118.1 151.6 118.2 151.6 118.2 151.3 118.2 151.3 118.3 151 118.3 151 118.4 150.7 118.4 150.6 118.5 150.4 118.5 150.3 118.5 150 118.6 149.9 118.6 149.7 118.7 149.6 118.8 149.3C118.9 148.9 119 148.5 119.1 148.2L119.2 148.1 119.3 147.8 119.3 147.7 119.4 147.4 119.4 147.4C119.5 147.1 119.6 146.9 119.7 146.7L119.7 146.6 119.8 146.3 119.9 146.2 120 145.9 120.1 145.9C120.2 145.6 120.3 145.3 120.4 145.1L120.4 145.1 120.6 144.7 120.6 144.6 120.7 144.3 120.8 144.2 120.9 143.9 120.9 143.8 121 143.8 121.1 143.5 121.1 143.4 121.2 143.2 121.3 143 121.4 143C121.6 142.6 121.7 142.2 122 141.8L122 141.7 122.2 141.4 122.2 141.3 122.4 140.9 122.4 140.9 122.6 140.5 122.6 140.5 122.8 140.1 123 139.8 123 139.7 123 139.7 123.4 138.9 123.5 138.9 123.6 138.6 123.7 138.4 123.8 138.3 123.9 138 124 137.9 124.2 137.6 124.2 137.5 124.4 137.2 124.4 137.2 124.6 136.8 124.6 136.8 124.8 136.4 124.8 136.4 125 136.1 125.1 136 125.2 135.7 125.3 135.6 125.4 135.3 125.5 135.2 125.6 135 125.7 134.8 125.8 134.6 125.9 134.4 126.2 134 126.2 133.9 126.4 133.6 126.4 133.6 126.6 133.3 126.6 133.2 126.8 132.9 126.8 132.9 127 132.5 127 132.5 127.3 132.2 127.4 131.9 127.4 131.8 127.6 131.6 127.7 131.5 127.8 131.3 127.9 131.1 128 131 128.1 130.8 128.1 130.6 128.3 130.4 128.3 130.4 128.5 130.1 128.5 130.1 128.7 129.8 128.7 129.8 128.8 129.5 128.8 129.5 128.9 129.4 128.9 129.3 129 129.3 129 129.2 129 129.1 129 129.1 129.1 129 129.1 129 129.2 128.9 129.2 128.9 129.2 128.8 129.2 128.8 129.3 128.8 129.3 128.8 129.3 128.7 129.3 128.7 129.3 128.7 129.3 128.7 129.4 128.6 129.4 128.6 129.4 128.5 129.4 128.5 129.4 128.4 129.5 128.4 129.5 128.4 129.5 128.4 129.5 128.4 129.5 128.3 129.5 128.3 129.6 128.2 129.6 128.2 129.6 128.2 129.6 128.2 129.6 128.1 129.6 128.1 129.7 128.1 129.7 128.1 129.7 128 129.7 128 129.8 127.9 129.8 127.9 129.8 127.9 129.8 127.9 129.8 127.8 129.8 127.8 129.8 127.8 129.8 127.8 129.9 127.7 129.9 127.7 129.9 127.7 129.9 127.7 129.9 127.6 129.9 127.6 130 127.6 130 127.6 130 127.5 130 127.5 130 127.4 130 127.4 130.1 127.4 130.1 127.4 130.1 127.4 130.1 127.4 130.1 127.3 130.1 127.3 130.1 127.3 130.1 127.3 130.2 127.2 130.2 127.2 130.2 127.2 130.2 127.2 130.2 127.1 130.2 127.1 130.2 127.1 130.2 127.1 130.3 127 130.3 127 130.3 127 130.3 127 130.3 127 130.3 127 130.4 126.9 130.4 126.9 130.4 126.9 130.4 126.9 130.4 126.8 130.4 126.8 130.4 126.8 130.4 126.8 130.4 126.8 130.4 126.8 130.5 126.7 130.5 126.7 130.5 126.7 130.5 126.7 130.5 126.7 130.5 126.7 130.5 126.6 130.5 126.6 130.5 126.6 130.5 126.6 130.6 126.5 130.6 126.5 130.6 126.5 130.6 126.5 130.6 126.5 130.6 126.5 130.6 126.4 130.6 126.4 130.7 126.4 130.7 126.4 130.7 126.4 130.7 126.4 130.7 126.3 130.7 126.3 130.7 126.3 130.7 126.3ZM140 159.6C141.5 158.1 142.6 155.8 142.6 153.3 142.6 151 140.1 146 137.4 141.1L137.4 141.1 137.4 141.1 137.4 141.1C137 140.4 136.7 139.8 136.3 139.1L136.2 139 136.2 138.9 136.1 138.9 136.1 138.8 136 138.5 135.9 138.5C135.2 137.2 134.5 136.1 133.9 135L133.8 134.9 133.8 134.8 133.8 134.8 133.7 134.7 133.6 134.6 133.6 134.5 133.4 134.8 133.3 135.1 133.3 135.1 133.1 135.4 133.1 135.4 132.9 135.7 132.7 136 132.7 136 132.5 136.3 132.5 136.3 132.4 136.6 132.2 136.9 132.2 136.9 132 137.2 131.8 137.5 131.8 137.5 131.6 137.9 131.6 137.9 131.4 138.2 131.4 138.2 131.2 138.5 131 138.9 131 138.9 130.8 139.2 130.8 139.2 130.7 139.5 130.7 139.5 130.5 139.9 130.5 139.9 130.3 140.2 130.1 140.5 130.1 140.5 129.9 140.9 129.9 140.9 129.7 141.2 129.7 141.2 129.6 141.5 129.4 141.9 129.2 142.2 129.2 142.2 129 142.6 129 142.6 128.8 142.9 128.6 143.2 128.6 143.2 128.5 143.6 128.3 143.9 128.3 143.9 128.1 144.3 128.1 144.3 127.9 144.6 127.9 144.6 127.8 144.9 127.6 145.2 127.4 145.6 127.3 145.9 127.3 145.9 127.1 146.2 127 146.5 127 146.5 126.8 146.8 126.8 146.8 126.7 147.2 126.7 147.2 126.5 147.5 126.5 147.5 126.4 147.8 126.4 147.8 126.3 148.1 126.1 148.4 126 148.6 126 148.6 125.9 149 125.9 149 125.7 149.3 125.7 149.5 125.7 149.5 125.6 149.8 125.6 149.8 125.4 150 125.4 150 125.3 150.3 125.3 150.3 125.3 150.6 125.3 150.6 125.2 150.8 125.2 150.8 125.1 151.1 125.1 151.1 125 151.3 125 151.3 125 151.6 125 151.6 124.9 151.8 124.9 151.8 124.8 152 124.8 152 124.8 152.2 124.8 152.2 124.8 152.4 124.8 152.4C124.7 152.5 124.7 152.5 124.7 152.6L124.7 152.6 124.7 152.8 124.7 152.8C124.7 152.9 124.7 152.9 124.7 153L124.7 153 124.6 153.2 124.6 153.2 124.6 153.3 124.6 153.4C124.7 155.9 125.7 158.1 127.3 159.7 128.9 161.3 131.1 162.3 133.6 162.3 136.1 162.3 138.3 161.3 140 159.6ZM135.3 72.7C136.2 74.3 135.6 76.3 133.9 77.2 132.3 78 130.3 77.4 129.4 75.8 128.7 74.3 127.6 72.9 126.3 71.9 125 70.8 123.4 70.1 121.8 69.6L121.8 69.6C120.8 69.4 119.8 69.2 118.9 69.2 117.8 69.2 116.8 69.3 115.8 69.5 114 69.9 112.3 68.8 111.8 67 111.5 65.2 112.6 63.5 114.4 63 115.8 62.7 117.4 62.6 118.9 62.6 120.5 62.6 122 62.8 123.4 63.2L123.6 63.2C126.1 63.9 128.4 65.1 130.4 66.7 132.5 68.3 134.1 70.4 135.3 72.7ZM37.2 75.8C36.4 77.4 34.4 78 32.7 77.2 31.1 76.3 30.5 74.3 31.3 72.7 32.5 70.4 34.2 68.3 36.2 66.7 38.2 65.1 40.6 63.9 43.1 63.2L43.2 63.2C44.7 62.8 46.2 62.6 47.7 62.6 49.3 62.6 50.8 62.7 52.3 63 54.1 63.5 55.2 65.2 54.8 67 54.4 68.8 52.6 69.9 50.9 69.5 49.9 69.3 48.8 69.2 47.8 69.2 46.8 69.2 45.8 69.4 44.9 69.6L44.9 69.6C43.2 70.1 41.7 70.8 40.4 71.9 39.1 72.9 38 74.3 37.2 75.8ZM125.2 92.7C125.2 90.7 124.5 88.9 123.3 87.6 122.2 86.5 120.6 85.7 119 85.7 117.3 85.7 115.8 86.5 114.7 87.6 113.5 88.9 112.8 90.7 112.8 92.7 112.8 94.6 113.5 96.4 114.7 97.7 115.8 98.9 117.3 99.6 119 99.6 120.6 99.6 122.2 98.9 123.3 97.7 124.5 96.4 125.2 94.6 125.2 92.7ZM128.2 83.2C130.4 85.6 131.8 89 131.8 92.7 131.8 96.4 130.4 99.7 128.2 102.2 125.8 104.7 122.6 106.3 119 106.3 115.4 106.3 112.1 104.7 109.8 102.2 107.5 99.7 106.1 96.4 106.1 92.7 106.1 89 107.5 85.6 109.8 83.2 112.1 80.6 115.4 79.1 119 79.1 122.6 79.1 125.8 80.6 128.2 83.2ZM53.9 92.7C53.9 90.7 53.2 88.9 52 87.6 50.9 86.5 49.4 85.7 47.7 85.7 46 85.7 44.5 86.5 43.4 87.6 42.2 88.9 41.5 90.7 41.5 92.7 41.5 94.6 42.2 96.4 43.4 97.7 44.5 98.9 46 99.6 47.7 99.6 49.4 99.6 50.9 98.9 52 97.7 53.2 96.4 53.9 94.6 53.9 92.7ZM56.9 83.2C59.2 85.6 60.5 89 60.5 92.7 60.5 96.4 59.2 99.7 56.9 102.2 54.5 104.7 51.3 106.3 47.7 106.3 44.1 106.3 40.9 104.7 38.5 102.2 36.2 99.7 34.8 96.4 34.8 92.7 34.8 89 36.2 85.6 38.5 83.2 40.9 80.6 44.1 79.1 47.7 79.1 51.3 79.1 54.5 80.6 56.9 83.2Z" fill="rgb(1,22,39)" fill-opacity="0.2"/></g></svg>
